X:1
T:Marriage D,Amour
T:Richard Clayderman
%%score 1 2 3
L:1/8
Q:1/4=66
M:4/4
K:Bb
V:1 treble nm="Violin"
V:2 alto nm="Viola"
V:3 bass nm="Violoncello"
V:1
"^Adagio" z8 | z8 | z8 | z8 | z!mp!{d} vd'2 z D (G,/B,/)(D/C/) D | %5
 (G,/B,/)(D/C/) D (G,/B,/)(E/D/) E (G,/B,/)(E/D/) | E (E/D/)(E/=E/) F (F/G/)(F/G/) D2- | %7
 D d (G/B/)(d/c/) d (G/B/)(d/c/) d | (G/B/)(e/d/) e (G/B/)(e/d/) e (e/d/)(e/=e/) | %9
 f (f/g/)(f/g/) d3 B>D | (D/E<)E C/(C/A<)A C/(C/D/)D | B,/B,/G/F/ G3/2 B,/(B,/C/) (C>A,) (D/C/) | %12
 D3 B>B (B/c/) (c>B) | (A/G/) F>F (G/F/) G3 B | B/B/(B/c/) c>(BA/G/) F>F (G/F/) | %15
 G3 B B/B/(B/c/) (c>B) | (A/G/) F>(FG/F/) D3 B | B/B/(B/c/) (c>B) (A/G/) F>F (G/F/) | %18
 G6 D (G,/B,/) | (D/C/) D (G,/B,/)(D/C/) D (G,/B,/)(E/D/) E | %20
 (G,/B,/)(E/D/) E (E/D/)(E/=E/) F (F/G/)(F/G/) | D3 d (G/B/)(d/c/) d (G/B/) | %22
 (d/c/) d (G/B/)(e/d/) e (G/B/)(e/d/) e | (e/d/)(e/=e/) f (f/g/)(f/g/) d3 | %24
 B>B (B/c/) (c>B) (A/G/) F>F | (G/F/) G3 B B/B/(B/c/) c- | (c/ B/)(A/G/) F>F (G/F/) G3 | %27
 B B/B/(B/c/) (c>B) (A/G/) F>F | (G/F/) D3 B B/B/(B/c/) c- | (c/ B/)(A/G/) F>F (G/F/) G3- | %30
 G3 z z4 |] %31
V:2
 z2 z2 z2 z z/!mf! uG/ | G/A/A/B/ B/A/A/G/ G/D/D/B,/ B,/G,/G,/F/ | F/E/E/D/ E/F/ E2 z z/ uE/E/F/ | %3
 F/G/G/A/ A/F/F/C/ C/E/E/D/ D/C/C/E/ | D z z2 D (G,/B,/)(D/C/) D | %5
 (G,/B,/)(D/C/) D (G,/B,/)(E/D/) E (G,/B,/)(E/D/) | E (E/D/)(E/=E/) F (F/G/)(F/G/) D2- | %7
 D d (G/B/)(d/c/) d (G/B/)(d/c/) d | (G/B/)(e/d/) e (G/B/)(e/d/) e (e/d/)(e/=e/) | %9
 f (f/g/)(f/g/) d3 B>D | (D/E<)E C/(C/A<)A C/(C/D/)D | B,/B,/G/F/ G3/2 B,/(B,/C/) (C>A,) (D/C/) | %12
 D3 B>B (B/c/) (c>B) | (A/G/) F>F (G/F/) G3 B | B/B/(B/c/) c>(BA/G/) F>F (G/F/) | %15
 G2 (B,G,) DB(CG) | e(F,C)A B,B[A,A][G,G] | DB(CG) e(F,C)A | (G,D) Bdgb D (G,/B,/) | %19
 (D/C/) D (G,/B,/)(D/C/) D (G,/B,/)(E/D/) E | (G,/B,/)(E/D/) E (E/D/)(E/=E/) F (F/G/)(F/G/) | %21
 D3 d (G/B/)(d/c/) d (G/B/) | (d/c/) d (G/B/)(e/d/) e (G/B/)(e/d/) e | %23
 (e/d/)(e/=e/) f (f/g/)(f/g/) d3 | B>B (B/c/) (c>B) (A/G/) F>F | (G/F/) G3 B B/B/(B/c/) c- | %26
 (c/ B/)(A/G/) F>F (G/F/) G2 B, | G,DBC GeF,C | AB,B[A,A] [G,G]DBC | GeF,C AG,DB | %30
 vdugb d'2 G/B/ d/g/ z |] %31
V:3
!mf! (vG,,D,) (B,D,B,D,B,D,) | (G,,D,) (B,D,B,D,B,"^sim."D,) | E,G,EG, EG,F,,C, | %3
 A,C,A,C, A,B,,F,D | D, ^F3 G,,D,B,D, | B,D,G,,D, B,C,G,E | G,EG,F,, C,A,B,,B, | %7
 [A,,A,][G,,B,]D,B, D,B,D,G,, | D,B,C,G, EG,EG, | F,,C,A,B,, [B,,B,][A,,A,][G,,G,]D, | %10
 B,C,G,E F,,C,A,B,, | B,[A,,A,]G,,D, B,A,,E,C | D,E,[^F,,^F,][G,,G,] D,B,C,G, | %13
 EF,,C,A, B,,B,[A,,A,][G,,G,] | D,B,C,G, EF,,C,A, | G,,D,B,G, B,/B,/(B,/C/) (C>B,) | %16
 (A,/G,/) F,>(F,G,/F,/) D,3 B, | B,/B,/(B,/C/) (C>B,) (A,/G,/) F,>F, (G,/F,/) | G,6 (G,,D,) | %19
 (B,D,B,D,) (G,,D,B,C,) | (G,EG,E) (G,F,,C,A,) | vB,,u[B,,B,]v[A,,A,]u[G,,B,] (D,B,D,B,) | %22
 (D,G,,D,"^sim."B,) C,G,EG, | EG,F,,C, A,B,,[B,,B,][A,,A,] | [G,,G,]D,B,C, G,EF,,C, | %25
 A,B,,B,[A,,A,] [G,,G,]D,B,C, | G,EF,,C, A,G,,D,B, | G, B,/B,/(B,/C/) (C>B,) (A,/G,/) F,>F, | %28
 (G,/F,/) D,3 B, B,/B,/(B,/C/) C- | (C/ B,/)(A,/G,/) F,>F, (G,/F,/) G,3- | G,3 z z4 |] %31

